X:1
T:Blue Skies Jazz Combo
%%score ( 1 2 ) 3 4 5
L:1/8
Q:1/4=148
M:4/4
K:F
V:1 treble nm="Voice" snm="Vo."
V:2 treble 
V:3 treble transpose=-2 nm="BaccidentalFlat Trumpet" snm="BaccidentalFlat Tpt."
V:4 bass nm="Trombone" snm="Trb."
V:5 bass-8 nm="Bass Guitar" snm="B. Guit."
V:1
"^Allegro" z8 | z8 | z8 | z8 |!mf! D3 A- A4- | A4 GFGA- | A8- | A2 z2 GFGA- | A3 C- C4- | %9
 C4 C D2 F- | F8 | z8 | z6 d^c- | c8 | z4 cdc=B- | B2 z2 =BBBc- | c3 A- A4 | B4 B B2 A- | A8 | z8 | %20
 FGAB c4 | _dcBc- c4 | BAGA- A4 | GFEF- F2 z2 | FGAB c4 | _dcBc- c4 | BAGA- A4 | GFEF- F2 z2 | %28
 z6 d^c- | c8 | z4 cdc=B- | B2 z2 =BBBc- | c3 A- A4 | B4 B B2 A- | A8 | z8 | z8 | z8 | z8 | z8 | %40
 z8 | z8 | C4 _E4 | _A4 c4 | z8 | z8 | z8 | z8 | z8 | z8 | z8 | z8 | D3 A4 d | _d A2 F- F2 G_A | %54
 A F2 D3 z C | =B,DFA GFG_A | AB=Bc- cA (3_BcB | A F2 z D2 GC- | C2 z2 z4 | z8 | C4 CB,A,B, | %61
 z D z _D2 =DEF | F3 D3 A2 | G A2 F3 z2 | z8 | z8 | z8 | z8 | z2 cc c c2 c- | c8 | _d3 c3 B2 | %71
 [FAc]6 z2 | B3 A3 G2 | A8 | z4 GFE.F | z8 | z2 cc c c2 c- | c8 | _d3 c3 B2 | [FAc]6 z2 | %80
 B3 A3 G2 | A8 | z4 GFE.F | z8 | z6 d^c- | c8 | z4 cdc=B- | B2 z2 =BBBc- | c3 [EAc]- [EAc]4- | %89
 [EAc]6 z2 | [FBc]6 z2 | [FBc]6 z2 | [EAc]8- | [EAc]8- | [EAc]8- | [EAc]8 | z8 | z8 | z8 | z8 | %100
 z8 |] %101
V:2
 x8 | x8 | x8 | x8 | x8 | x8 | x8 | x8 | x8 | x8 | x8 | x8 | D3 A- A4- | A4 GFGA- | A8- | %15
 A2 z2 GFGA- | A3 C- C4- | C4 C D2 F- | F8 | x8 | FGAB A4 | _AAG=A- A4 | FFFE- E z z2 | %23
 _DDDC C2 x2 | FGAB A4 | _AAG=A- A4 | FFFE- E z z2 | _DDDC C2 x2 | D3 A- A4- | A4 GFGA- | A8- | %31
 A2 z2 GFGA- | A3 C- C4- | C4 C D2 F- | F8 | x8 | x8 | x8 | x8 | x8 | x8 | x8 | x8 | x8 | x8 | x8 | %46
 x8 | x8 | C4 F4 | C4 G4 | F8 | x8 | x8 | x8 | x8 | x8 | x8 | x8 | x8 | x8 | x8 | x8 | x8 | x8 | %64
 x8 | x8 | x8 | x8 | z2 cc c c2 A- | A8 | _A3 A3 _G2 | x8 | _E3 F3 E2 | E8 | x8 | x8 | %76
 z2 cc c c2 A- | A8 | _A3 A3 _G2 | x8 | _E3 F3 E2 | E8 | x8 | x8 | D3 A- A4- | A4 GFGA- | A8- | %87
 A2 z2 GFGA- | A3 x5 | x8 | x8 | x8 | x8 | x8 | x8 | x8 | x8 | x8 | x8 | x8 | x8 |] %101
V:3
[K:G]!mp! z8 | z8 | z8 | z8 | z6 !tenuto!^d!^!e | z8 | z2 .e2 !tenuto!e!tenuto!d .e2 | %7
 !^!f z z2 z4 | z2 z2 z2 d2 | ^c2 =c2 z4 | z2 z2 !^!g2 z2 | f2 c2 ^d4 | z2 z2 z2 e^d- | d8 | %14
 z2 e2 z4 | z8 | z8 | !^!A2 z2 z4 | z4 f4 | (3d^de (3de^e (3=e^ef (3efg- | g2 z2 z g3 | d3 f3- f2 | %22
 c3 B3 d2 | d3 d3 d2 | g2 z2 z g3 | d3 f3- f2 | c3 B3 d2 | d3 d3 B2 | e2 z2 z2 e^d- | d8 | %30
 z2 e2 z4 | z8 | z8 | !^!A2 z2 z4 | z8 | z8 | E3 B4 e | _e B2 G- G2 A_B | B G2 E3 z D | %39
 ^CEGB AGA_B | Bc^cd- dB (3=cdc | B G2 z E2 Ad- | d2 z2 z4 | z8 | z8 | z8 | z8 | z2 z2 z4 | z8 | %49
 z8 | z8 | z8 | z8 | z8 | z8 | z8 | z8 | z8 | D4 =F4 | _B4 d4 | z8 | z8 | z8 | z8 | D4 G4 | D4 A4 | %66
 G8 | z8 | z8 | g2 d g3 d z | g2 d g4 z | g2 d g3 d z | g2 d g3 d2 | d4 d2 c2 | .A2 z2 z2 z g | %75
 z8 | z8 | g2 d g3 d z | g2 d g4 z | g2 d g3 d z | g2 d g3 d2 | d4 d2 c2 | .A2 z2 z2 z g | z8 | %84
 z2 z2 z2 e^d- | d8 | z2 e2 z4 | z8 | z8 | d2 e2 e2 d2 | d4 z4 | d4 z4 | d4 d4 | g2 d g3 d z | %94
 g2 d g3 d z | g2 d g3 d z | z8 | z8 | z8 | z8 | z8 |] %101
V:4
!mf! z8 | z8 | z8 | z8 | z2 z2 z2 !tenuto!E!^!F | z8 | z2 .D2 !tenuto!D!tenuto!C .D2 | %7
 !^!E z z2 z4 | z2 z2 z2 C2 | =B,2 _B,2 z4 | z2 z2 !^!A,2 z2 | E2 B,2 A,2 _E,2 | D,3 A,- A,4- | %13
 A,4 G,F,G,A, | z2 D2 z2 z2 | z8 | z2 z2 z2 !tenuto!D2 | !^!G,2 z2 z4 | z2 C6 | %19
 (3C^CD (3CD^D (3=D^DE (3DEF- | F2 z2 z C3 | B,3 F, F4 | D3 D3 C2 | C3 F3 C2 | F2 z2 z C3 | %25
 B,3 F, F4 | D3 D3 C2 | C3 F3 A,2 | D2 z A,- A,4- | A,4 G,F,G,A, | z2 D2 z2 z2 | z8 | %32
 z2 z2 z2 !tenuto!D2 | !^!G,2 z2 z4 | z8 | z8 | z8 | z8 | z8 | z8 | z8 | z8 | z8 | z8 | %44
 C4 CB,A,B, | z D z _D2 =DEF | F3 D3 A2 | G A2 F3 z2 | z8 | z8 | z8 | z8 | z8 | z8 | z8 | z8 | z8 | %57
 z8 | C,4 _E,4 | _A,4 C4 | z8 | z8 | z8 | z8 | C,4 F,4 | C,4 G,4 | F,8 | z8 | z2 C F4 z | %69
 z2 C F3 C z | z2 C F4 z | z2 C F3 C z | z2 C F3 C2 | C4 F2 G2 | .C2 z2 z2 z F | z8 | z2 C F4 z | %77
 F2 C F3 C z | F2 C F4 z | F2 C F3 C z | F2 C F3 C2 | C4 F2 G2 | .C2 z2 z2 z F | z8 | %84
 z2 z A,- A,4- | A,4 G,F,G,A, | z2 D2 z2 z2 | z8 | z8 | F,2 A,2 B,2 C2 | z4 C4 | z4 C4 | C4 C4 | %93
 F2 C F3 C z | F2 C F3 C z | F2 C F3 C z | F,,2 z2 z4 | z8 | z8 | z8 | z8 |] %101
V:5
!mp! D,2 E,2 F,2 A,2 | G,2 B,2 A,>A, ^C2 | D2 A,2 F,2 D,2 | B,2 E,2 A,>A, _E,2 | D,2 E,2 F,2 D,2 | %5
 ^C,2 A,,2 C,2 E,2 | F,2 D,2 A,2 F,2 | G,2 D,2 =B,,2 G,,2 | F,2 E,2 D,2 C,2 | G,,2 D,2 C,2 _G,2 | %10
 F,2 G,2 A,2 F,2 | E,2 B,2 A,>A, _E,2 | D,2 E,2 F,2 A,2 | ^C,2 A,2 C,2 E,2 | F,2 D,2 A,2 F,2 | %15
 G,2 D,2 =B,,2 G,,2 | F,2 E,2 D,2 C,2 | G,,2 D,2 C,2 G,2 | F,2 G,2 A,>F, D,2 | E,3 C,3 C2 | %20
 F,2 z2 z F,3 | B,,2 C, F,4- F, | G,2 C, F,4- F, | C,C,_G, F,4- F, | F,2 z2 z F,3 | %25
 B,,2 C, F,4- F, | G,2 C, F,4- F, | C,C,_G, F,4- F, | D,2 E,2 F,2 A,2 | ^C,2 A,2 C,2 E,2 | %30
 F,2 D,2 A,2 F,2 | G,2 D,2 =B,,2 G,,2 | F,2 E,2 D,2 C,2 | G,,2 D,2 C,2 G,2 | F,2 G,2 A,>F, D,2 | %35
 E,2 G,2 F,2 _E,2 | D,2 E,2 F,2 D,2 | ^C,2 A,2 C,2 E,2 | F,2 D,2 A,2 F,2 | G,2 D,2 =B,,2 G,,2 | %40
 F,2 E,2 D,2 F,2 | G,2 B,2 C>G, C,2 | F,4 _A,4 | _D,4 C,4 | F,2 G,2 A,2 F,2 | E,2 B,2 A,2 _E,2 | %46
 D,2 E,2 F,2 A,2 | G,2 A,2 =B,2 G,2 | F,4 D,4 | G,4 C,4 | F,8 | E,2 G,2 F,2 _E,2 | %52
 D,2 E,2 F,2 D,2 | ^C,2 A,2 C,2 E,2 | F,2 D,2 A,2 F,2 | G,2 D,2 =B,,2 G,,2 | F,2 E,2 D,2 F,2 | %57
 G,2 B,2 C>G, C,2 | F,4 _A,4 | _D,4 C,4 | F,2 G,2 A,2 F,2 | E,2 B,2 A,2 _E,2 | D,2 E,2 F,2 A,2 | %63
 G,2 A,2 =B,2 G,2 | F,4 D,4 | G,4 C,4 | F,8 | _A,,4 B,,4 | C,2 C,C, C, C,2 C, | %69
 C,2 C,C, C, C,2 C, | C,2 C,C, C, C,2 C, | C,2 C,C, C, C,2 C, | C,2 C,C, C, C,2 C, | %73
 C,2 C,C, C, C,2 C, | !^!C,2 z2 z4 | _A,,2 B,,3 A,,2 B,, | C,2 C,C, C, C,2 C, | %77
 C,2 C,C, C, C,2 C, | C,2 C,C, C, C,2 C, | C,2 C,C, C, C,2 C, | C,2 C,C, C, C,2 C, | %81
 C,2 C,C, C, C,2 C, | C,2 z z4 z | z E,^C,A, (3C,D,C, A,,C, | D,2 E,2 F,2 A,2 | ^C,2 A,2 C,2 E,2 | %86
 F,2 D,2 A,2 F,2 | G,2 D,2 =B,,2 G,,2 | F,2 E,2 D,2 C,2 | F,2 F,2 G,2 A,2 | z2 z2 C,4 | z4 C,4 | %92
 F,4 C,4 | F,2 C, F,3 C, z | F,2 C, F,3 C, z | F,2 C, F,3 C, z | F,,2 z2 z4 | z8 | z8 | z8 | z8 |] %101

